src/android-open.svg

<?xml version="1.0" encoding="utf-8"?>
<!-- Generated by IcoMoon.io -->
<!DOCTYPE svg PUBLIC "-//W3C//DTD SVG 1.1//EN" "http://www.w3.org/Graphics/SVG/1.1/DTD/svg11.dtd">
<svg version="1.1" xmlns="http://www.w3.org/2000/svg" xmlns:xlink="http://www.w3.org/1999/xlink" width="512" height="512" viewBox="0 0 512 512">
<path fill="#000000" d="M405.34 405.332h-298.68v-298.664h133.34v-42.668h-133.34c-23.469 0-42.66 19.197-42.66 42.668v298.664c0 23.471 19.191 42.668 42.66 42.668h298.68c23.469 0 42.66-19.197 42.66-42.668v-133.332h-42.66v133.332zM288 64v42.668h87.474l-215.475 215.465 29.866 29.866 215.476-215.47v87.471h42.659v-160h-160z"></path>
</svg>

<?xml version="1.0" encoding="utf-8"?>
<!-- Generator: Adobe Illustrator 16.2.1, SVG Export Plug-In . SVG Version: 6.00 Build 0)  -->
<!DOCTYPE svg PUBLIC "-//W3C//DTD SVG 1.1//EN" "http://www.w3.org/Graphics/SVG/1.1/DTD/svg11.dtd">
<svg version="1.1" id="Layer_1" xmlns="http://www.w3.org/2000/svg" xmlns:xlink="http://www.w3.org/1999/xlink" x="0px" y="0px"
	 width="512px" height="512px" viewBox="0 0 512 512" enable-background="new 0 0 512 512" xml:space="preserve">
<path d="M405.34,405.332H106.66V106.668H240V64H106.66C83.191,64,64,83.197,64,106.668v298.664C64,428.803,83.191,448,106.66,448
	h298.68c23.469,0,42.66-19.197,42.66-42.668V272h-42.66V405.332z M288,64v42.668h87.474L159.999,322.133l29.866,29.866
	l215.476-215.47V224H448V64H288z"/>
</svg>
